img/landing/innovations-hero.svg

<svg width="758" height="600" viewBox="0 0 758 600" fill="none" xmlns="http://www.w3.org/2000/svg">
<path d="M228.97 198.923L203.723 184.331L178.493 198.923L153.246 213.5L128 228.077L153.246 242.653L178.493 257.23L203.723 242.653L228.97 228.077L254.216 213.5L228.97 198.923Z" stroke="#999DFF" stroke-width="3.18" stroke-miterlimit="10" stroke-linejoin="round"/>
<path d="M228.971 228.07L203.724 242.647L178.494 257.224V286.377V315.53V344.683V373.853L203.724 359.276L228.971 344.683V315.53V286.377L254.217 271.8V242.647V213.494L228.971 228.07Z" stroke="#999DFF" stroke-width="3.18" stroke-miterlimit="10" stroke-linejoin="round"/>
<path d="M329.94 373.857L304.694 359.281L279.448 373.857L254.217 359.281L228.971 344.688L203.724 359.281L178.494 373.857L203.724 388.434L228.971 403.011L254.217 417.587L279.448 432.164L304.694 417.587L329.94 403.011L355.187 388.434L329.94 373.857Z" stroke="#999DFF" stroke-width="3.18" stroke-miterlimit="10" stroke-linejoin="round"/>
<path d="M254.216 417.589L228.97 403.012L203.723 388.435L178.493 373.859V344.689V315.536V286.383V257.229L153.246 242.653L128 228.076V257.229V286.383V315.536V344.689V373.859V403.012L153.246 417.589L178.493 432.165L203.723 446.742L228.97 461.319L254.216 475.895L279.446 490.472V461.319V432.165L254.216 417.589Z" stroke="#999DFF" stroke-width="3.18" stroke-miterlimit="10" stroke-linejoin="round"/>
<path d="M329.94 257.23L304.694 242.653L279.447 257.23L254.217 271.807L228.971 286.383L254.217 300.96L279.447 315.537L304.694 300.96L329.94 286.383L355.187 271.807L329.94 257.23Z" stroke="#999DFF" stroke-width="3.18" stroke-miterlimit="10" stroke-linejoin="round"/>
<path d="M254.217 300.961L228.971 286.384V315.538V344.691L254.217 359.284L279.447 373.86V344.691V315.538L254.217 300.961Z" stroke="#999DFF" stroke-width="3.18" stroke-miterlimit="10" stroke-linejoin="round"/>
<path d="M329.938 286.383L304.692 300.96L279.445 315.537V344.69V373.859L304.692 359.283L329.938 344.69L355.185 330.113V300.96V271.807L329.938 286.383Z" stroke="#999DFF" stroke-width="3.18" stroke-miterlimit="10" stroke-linejoin="round"/>
<path d="M329.938 403.015L304.692 417.591L279.445 432.168V461.321V490.474L304.692 475.898L329.938 461.321L355.185 446.745V417.591V388.438L329.938 403.015Z" stroke="#999DFF" stroke-width="3.18" stroke-miterlimit="10" stroke-linejoin="round"/>
<path d="M380.495 257.585L355.232 272.161L380.495 286.754L405.758 301.347V272.161V242.992L380.495 257.585Z" stroke="#F6A5FE" stroke-width="3.18" stroke-miterlimit="10" stroke-linejoin="round"/>
<path d="M380.495 170.039L355.232 155.446V184.632V213.801L380.495 228.394L405.758 242.987V213.801V184.632L380.495 170.039Z" stroke="#F6A5FE" stroke-width="3.18" stroke-miterlimit="10" stroke-linejoin="round"/>
<path d="M456.283 155.453L431.02 170.046L405.758 184.638V213.808V242.993L431.02 228.401L456.283 213.808L481.546 199.215V170.046V140.86L456.283 155.453Z" stroke="#F6A5FE" stroke-width="3.18" stroke-miterlimit="10" stroke-linejoin="round"/>
<path d="M506.81 242.993L481.548 257.586L456.285 272.163V301.348V330.534L481.548 315.941L506.81 301.348L532.073 286.755V257.586V228.4L506.81 242.993Z" stroke="#F6A5FE" stroke-width="3.18" stroke-miterlimit="10" stroke-linejoin="round"/>
<path d="M431.02 257.585L405.758 242.992V272.161V301.347L431.02 315.94L456.283 330.532V301.347V272.161L431.02 257.585Z" stroke="#F6A5FE" stroke-width="3.18" stroke-miterlimit="10" stroke-linejoin="round"/>
<path d="M431.02 315.938L405.758 301.345V330.531V359.7L431.02 345.107L456.283 330.531L431.02 315.938Z" stroke="#F6A5FE" stroke-width="3.18" stroke-miterlimit="10" stroke-linejoin="round"/>
<path d="M380.495 286.752L355.232 272.16V301.345V330.531L380.495 345.108L405.758 359.7V330.531V301.345L380.495 286.752Z" stroke="#F6A5FE" stroke-width="3.18" stroke-miterlimit="10" stroke-linejoin="round"/>
<path d="M506.808 213.803L481.546 199.21L456.283 213.803L431.02 228.396L405.758 242.988L431.02 257.581L456.283 272.158L481.546 257.581L506.808 242.988L532.071 228.396L506.808 213.803Z" stroke="#F6A5FE" stroke-width="3.18" stroke-miterlimit="10" stroke-linejoin="round"/>
<path d="M456.283 126.264L431.02 111.687L405.758 126.264L380.495 140.856L355.232 155.449L380.495 170.042L405.758 184.635L431.02 170.042L456.283 155.449L481.545 140.856L456.283 126.264Z" stroke="#F6A5FE" stroke-width="3.18" stroke-miterlimit="10" stroke-linejoin="round"/>
<path d="M606.716 388.812L581.453 374.219L556.19 388.812L530.928 403.404L556.19 417.997L581.453 432.574L606.716 447.167L631.978 461.759V432.574V403.404L606.716 388.812Z" stroke="#FFD178" stroke-width="3.18" stroke-miterlimit="10" stroke-linejoin="round"/>
<path d="M733.029 315.862L707.766 301.27L682.503 286.677L657.241 272.1L631.978 257.507L606.716 242.915L581.453 257.507L556.19 272.1L530.928 286.677L556.19 301.27L581.453 315.862L606.716 330.455L631.978 345.048L657.241 359.625L682.503 374.218L707.766 359.625L733.029 345.048L758.291 330.455L733.029 315.862Z" stroke="#FFD178" stroke-width="3.18" stroke-miterlimit="10" stroke-linejoin="round"/>
<path d="M733.029 345.048L707.767 359.625L682.504 374.217V403.403V432.572V461.758V490.944V520.113V549.299L707.767 534.706L733.029 520.113L758.292 505.52V476.351V447.165V417.996V388.81V359.625V330.455L733.029 345.048Z" stroke="#FFD178" stroke-width="3.18" stroke-miterlimit="10" stroke-linejoin="round"/>
<path d="M657.241 359.624L631.978 345.031L606.716 330.439L581.453 315.846L556.19 301.253L530.928 286.66V345.015L556.19 359.608L581.453 374.201L606.716 388.794L631.978 403.387V461.742L606.716 447.149L581.453 432.556L556.19 417.963L530.928 403.37V461.725L556.19 476.318L581.453 490.911L606.716 505.504L631.978 520.097L657.241 534.689L682.503 549.282V374.201L657.241 359.608V359.624Z" stroke="#FFD178" stroke-width="3.18" stroke-miterlimit="10" stroke-linejoin="round"/>
<path d="M228.226 37.542L202.963 52.1349L228.226 66.7277L253.488 81.3205V52.1349V22.9492L228.226 37.542Z" stroke="#FF9894" stroke-width="3.18" stroke-miterlimit="10" stroke-linejoin="round"/>
<path d="M405.049 -6.22163L379.786 8.37118L354.523 22.9478V52.1335V81.3191L379.786 66.7263L405.049 52.1335L430.311 37.5406V8.37118V-20.8145L405.049 -6.22163Z" stroke="#FF9894" stroke-width="3.18" stroke-miterlimit="10" stroke-linejoin="round"/>
<path d="M329.259 66.7281L303.996 52.1353V81.3209V110.49L329.259 95.8975L354.521 81.3209L329.259 66.7281Z" stroke="#FF9894" stroke-width="3.18" stroke-miterlimit="10" stroke-linejoin="round"/>
<path d="M278.74 37.542L253.493 22.9492V52.1349V81.3205L278.74 95.8971L304.002 110.49V81.3205V52.1349L278.74 37.542Z" stroke="#FF9894" stroke-width="3.18" stroke-miterlimit="10" stroke-linejoin="round"/>
<path d="M278.74 95.8935L253.493 81.3169V110.486V139.672L278.74 125.079L304.002 110.486L278.74 95.8935Z" stroke="#FF9894" stroke-width="3.18" stroke-miterlimit="10" stroke-linejoin="round"/>
<path d="M228.226 66.7281L202.963 52.1353V81.3209V110.49L228.226 125.083L253.488 139.676V110.49V81.3209L228.226 66.7281Z" stroke="#FF9894" stroke-width="3.18" stroke-miterlimit="10" stroke-linejoin="round"/>
<path d="M405.047 -35.4072L379.784 -50L354.521 -35.4072L329.259 -20.8144L303.996 -6.22155L329.259 8.37127L354.521 22.9479L379.784 8.37127L405.047 -6.22155L430.309 -20.8144L405.047 -35.4072Z" stroke="#FF9894" stroke-width="3.18" stroke-miterlimit="10" stroke-linejoin="round"/>
<path d="M278.74 8.37016L253.493 22.9468L278.74 37.5396L304.002 52.1324V22.9468V-6.22266L278.74 8.37016Z" stroke="#FF9894" stroke-width="3.18" stroke-miterlimit="10" stroke-linejoin="round"/>
<path d="M329.259 8.37016L303.996 -6.22266V22.9468V52.1324L329.259 66.7252L354.521 81.3181V52.1324V22.9468L329.259 8.37016Z" stroke="#FF9894" stroke-width="3.18" stroke-miterlimit="10" stroke-linejoin="round"/>
<path d="M429.69 460.615L404.428 475.208L429.69 489.801L454.953 504.394V475.208V446.039L429.69 460.615Z" stroke="#A8F3E1" stroke-width="3.18" stroke-miterlimit="10" stroke-linejoin="round"/>
<path d="M480.221 518.989L454.958 504.396V533.566V562.752L480.221 548.159L505.483 533.566L480.221 518.989Z" stroke="#A8F3E1" stroke-width="3.18" stroke-miterlimit="10" stroke-linejoin="round"/>
<path d="M480.221 548.158L454.958 562.751L480.221 577.344L505.483 591.937V562.751V533.565L480.221 548.158Z" stroke="#A8F3E1" stroke-width="3.18" stroke-miterlimit="10" stroke-linejoin="round"/>
<path d="M530.743 606.515L505.48 591.938V621.108V650.294L530.743 635.701L556.006 621.108L530.743 606.515Z" stroke="#A8F3E1" stroke-width="3.18" stroke-miterlimit="10" stroke-linejoin="round"/>
<path d="M480.216 577.344L454.953 562.752V533.566V504.397L429.69 489.804L404.428 475.211V504.397V533.566V562.752V591.937L429.69 606.514L454.953 621.107L480.216 635.7L505.478 650.292V621.107V591.937L480.216 577.344Z" stroke="#A8F3E1" stroke-width="3.18" stroke-miterlimit="10" stroke-linejoin="round"/>
<path d="M606.534 446.04L581.271 431.447L556.008 416.854L530.746 402.261L505.483 416.854L480.221 431.447L454.958 446.04L480.221 460.616L505.483 475.209L530.746 489.802L556.008 504.395L581.271 489.802L606.534 475.209L631.78 460.616L606.534 446.04Z" stroke="#A8F3E1" stroke-width="3.18" stroke-miterlimit="10" stroke-linejoin="round"/>
<path d="M530.746 489.801L505.483 475.208L480.221 460.615L454.958 446.039V475.208V504.394L480.221 518.986L505.483 533.563V562.749V591.934L530.746 606.511L556.008 621.104V591.934V562.749V533.563V504.394L530.746 489.801Z" stroke="#A8F3E1" stroke-width="3.18" stroke-miterlimit="10" stroke-linejoin="round"/>
<path d="M606.53 475.208L581.267 489.801L556.005 504.394V533.563V562.749V591.934V621.104L581.267 606.511L606.53 591.934L631.777 577.342V548.156V518.986V489.801V460.615L606.53 475.208Z" stroke="#A8F3E1" stroke-width="3.18" stroke-miterlimit="10" stroke-linejoin="round"/>
<path d="M657.667 51.2773L632.42 36.7007L607.174 51.2773L581.944 65.8539L556.697 80.4306L581.944 95.0072L607.174 109.584L632.42 95.0072L657.667 80.4306L682.913 65.8539L657.667 51.2773Z" stroke="#A8F3E1" stroke-width="3.18" stroke-miterlimit="10" stroke-linejoin="round"/>
<path d="M581.944 95.0097L556.697 80.4331V109.586V138.74L581.944 153.332L607.174 167.909V138.74V109.586L581.944 95.0097Z" stroke="#A8F3E1" stroke-width="3.18" stroke-miterlimit="10" stroke-linejoin="round"/>
<path d="M657.663 80.4326L632.416 95.0092L607.17 109.586V138.739V167.909L632.416 153.332L657.663 138.739L682.909 124.163V95.0092V65.856L657.663 80.4326Z" stroke="#A8F3E1" stroke-width="3.18" stroke-miterlimit="10" stroke-linejoin="round"/>
<path d="M102.97 216.577L77.7232 202L52.4768 216.577L27.2464 231.153L2 245.73L27.2464 260.307L52.4768 274.883L77.7232 260.307L102.97 245.73L128.216 231.153L102.97 216.577Z" stroke="#A8F3E1" stroke-width="3.18" stroke-miterlimit="10" stroke-linejoin="round"/>
<path d="M27.2464 260.309L2 245.732V274.886V304.039L27.2464 318.632L52.4768 333.208V304.039V274.886L27.2464 260.309Z" stroke="#A8F3E1" stroke-width="3.18" stroke-miterlimit="10" stroke-linejoin="round"/>
<path d="M102.966 245.732L77.7191 260.309L52.4727 274.885V304.038V333.208L77.7191 318.631L102.966 304.038L128.212 289.462V260.309V231.155L102.966 245.732Z" stroke="#A8F3E1" stroke-width="3.18" stroke-miterlimit="10" stroke-linejoin="round"/>
</svg>

<svg width="758" height="600" fill="none" xmlns="http://www.w3.org/2000/svg"><path d="m228.97 198.923-25.247-14.592-25.23 14.592-25.247 14.577L128 228.077l25.246 14.576 25.247 14.577 25.23-14.577 25.247-14.576 25.246-14.577-25.246-14.577Z" stroke="#999DFF" stroke-width="3.18" stroke-miterlimit="10" stroke-linejoin="round"/><path d="m228.971 228.07-25.247 14.577-25.23 14.577v116.629l25.23-14.577 25.247-14.593v-58.306l25.246-14.577v-58.306l-25.246 14.576ZM329.94 373.857l-25.246-14.576-25.246 14.576-25.231-14.576-25.246-14.593-25.247 14.593-25.23 14.576 25.23 14.577 25.247 14.577 25.246 14.576 25.231 14.577 25.246-14.577 25.246-14.576 25.247-14.577-25.247-14.577Z" stroke="#999DFF" stroke-width="3.18" stroke-miterlimit="10" stroke-linejoin="round"/><path d="m254.216 417.589-25.246-14.577-25.247-14.577-25.23-14.576v-116.63l-25.247-14.576L128 228.076v174.936l25.246 14.577 25.247 14.576 25.23 14.577 25.247 14.577 25.246 14.576 25.23 14.577v-58.307l-25.23-14.576ZM329.94 257.23l-25.246-14.577-25.247 14.577-25.23 14.577-25.246 14.576 25.246 14.577 25.23 14.577 25.247-14.577 25.246-14.577 25.247-14.576-25.247-14.577Z" stroke="#999DFF" stroke-width="3.18" stroke-miterlimit="10" stroke-linejoin="round"/><path d="m254.217 300.961-25.246-14.577v58.307l25.246 14.593 25.23 14.576v-58.322l-25.23-14.577Z" stroke="#999DFF" stroke-width="3.18" stroke-miterlimit="10" stroke-linejoin="round"/><path d="m329.938 286.383-25.246 14.577-25.247 14.577v58.322l25.247-14.576 25.246-14.593 25.247-14.577v-58.306l-25.247 14.576ZM329.938 403.015l-25.246 14.576-25.247 14.577v58.306l25.247-14.576 25.246-14.577 25.247-14.576v-58.307l-25.247 14.577Z" stroke="#999DFF" stroke-width="3.18" stroke-miterlimit="10" stroke-linejoin="round"/><path d="m380.495 257.585-25.263 14.576 25.263 14.593 25.263 14.593V242.992l-25.263 14.593ZM380.495 170.039l-25.263-14.593V213.801l25.263 14.593 25.263 14.593V184.632l-25.263-14.593ZM456.283 155.453l-25.263 14.593-25.262 14.592V242.993l25.262-14.592 25.263-14.593 25.263-14.593V140.86l-25.263 14.593ZM506.81 242.993l-25.262 14.593-25.263 14.577V330.534l25.263-14.593 25.262-14.593 25.263-14.593V228.4l-25.263 14.593Z" stroke="#F6A5FE" stroke-width="3.18" stroke-miterlimit="10" stroke-linejoin="round"/><path d="m431.02 257.585-25.262-14.593V301.347l25.262 14.593 25.263 14.592V272.161l-25.263-14.576Z" stroke="#F6A5FE" stroke-width="3.18" stroke-miterlimit="10" stroke-linejoin="round"/><path d="m431.02 315.938-25.262-14.593V359.7l25.262-14.593 25.263-14.576-25.263-14.593ZM380.495 286.752l-25.263-14.592V330.531l25.263 14.577 25.263 14.592V301.345l-25.263-14.593ZM506.808 213.803l-25.262-14.593-25.263 14.593-25.263 14.593-25.262 14.592 25.262 14.593 25.263 14.577 25.263-14.577 25.262-14.593 25.263-14.592-25.263-14.593ZM456.283 126.264l-25.263-14.577-25.262 14.577-25.263 14.592-25.263 14.593 25.263 14.593 25.263 14.593 25.262-14.593 25.263-14.593 25.262-14.593-25.262-14.592Z" stroke="#F6A5FE" stroke-width="3.18" stroke-miterlimit="10" stroke-linejoin="round"/><path d="m606.716 388.812-25.263-14.593-25.263 14.593-25.262 14.592 25.262 14.593 25.263 14.577 25.263 14.593 25.262 14.592V403.404l-25.262-14.592ZM733.029 315.862l-25.263-14.592-25.263-14.593-25.262-14.577-25.263-14.593-25.262-14.592-25.263 14.592L556.19 272.1l-25.262 14.577 25.262 14.593 25.263 14.592 25.263 14.593 25.262 14.593 25.263 14.577 25.262 14.593 25.263-14.593 25.263-14.577 25.262-14.593-25.262-14.593Z" stroke="#FFD178" stroke-width="3.18" stroke-miterlimit="10" stroke-linejoin="round"/><path d="m733.029 345.048-25.262 14.577-25.263 14.592V549.299l25.263-14.593 25.262-14.593 25.263-14.593V330.455l-25.263 14.593ZM657.241 359.624l-25.263-14.593-25.262-14.592-25.263-14.593-25.263-14.593-25.262-14.593v58.355l25.262 14.593 25.263 14.593 25.263 14.593 25.262 14.593v58.355l-25.262-14.593-25.263-14.593-25.263-14.593-25.262-14.593v58.355l25.262 14.593 25.263 14.593 25.263 14.593 25.262 14.593 25.263 14.592 25.262 14.593V374.201l-25.262-14.593v.016Z" stroke="#FFD178" stroke-width="3.18" stroke-miterlimit="10" stroke-linejoin="round"/><path d="m228.226 37.542-25.263 14.593 25.263 14.593 25.262 14.593V22.948l-25.262 14.593ZM405.049-6.222 379.786 8.371l-25.263 14.577V81.319l25.263-14.593 25.263-14.593 25.262-14.592V-20.814L405.049-6.222ZM329.259 66.728l-25.263-14.593V110.49l25.263-14.593 25.262-14.576-25.262-14.593Z" stroke="#FF9894" stroke-width="3.18" stroke-miterlimit="10" stroke-linejoin="round"/><path d="m278.74 37.542-25.247-14.593V81.32l25.247 14.577 25.262 14.593V52.135L278.74 37.542Z" stroke="#FF9894" stroke-width="3.18" stroke-miterlimit="10" stroke-linejoin="round"/><path d="m278.74 95.894-25.247-14.577V139.672l25.247-14.593 25.262-14.593-25.262-14.593ZM228.226 66.728l-25.263-14.593V110.49l25.263 14.593 25.262 14.593V81.32l-25.262-14.592ZM405.047-35.407 379.784-50l-25.263 14.593-25.262 14.593-25.263 14.592 25.263 14.593 25.262 14.577L379.784 8.37l25.263-14.593 25.262-14.592-25.262-14.593Z" stroke="#FF9894" stroke-width="3.18" stroke-miterlimit="10" stroke-linejoin="round"/><path d="m278.74 8.37-25.247 14.577L278.74 37.54l25.262 14.592V-6.223L278.74 8.37Z" stroke="#FF9894" stroke-width="3.18" stroke-miterlimit="10" stroke-linejoin="round"/><path d="M329.259 8.37 303.996-6.223V52.132l25.263 14.593 25.262 14.593V22.947L329.259 8.37Z" stroke="#FF9894" stroke-width="3.18" stroke-miterlimit="10" stroke-linejoin="round"/><path d="m429.69 460.615-25.262 14.593 25.262 14.593 25.263 14.593V446.039l-25.263 14.576ZM480.221 518.989l-25.263-14.593v58.356l25.263-14.593 25.262-14.593-25.262-14.577Z" stroke="#A8F3E1" stroke-width="3.18" stroke-miterlimit="10" stroke-linejoin="round"/><path d="m480.221 548.158-25.263 14.593 25.263 14.593 25.262 14.593v-58.372l-25.262 14.593ZM530.743 606.515l-25.263-14.577v58.356l25.263-14.593 25.263-14.593-25.263-14.593Z" stroke="#A8F3E1" stroke-width="3.18" stroke-miterlimit="10" stroke-linejoin="round"/><path d="m480.216 577.344-25.263-14.592V504.397l-25.263-14.593-25.262-14.593v116.726l25.262 14.577 25.263 14.593 25.263 14.593 25.262 14.592V591.937l-25.262-14.593ZM606.534 446.04l-25.263-14.593-25.263-14.593-25.262-14.593-25.263 14.593-25.262 14.593-25.263 14.593 25.263 14.576 25.262 14.593 25.263 14.593 25.262 14.593 25.263-14.593 25.263-14.593 25.246-14.593-25.246-14.576Z" stroke="#A8F3E1" stroke-width="3.18" stroke-miterlimit="10" stroke-linejoin="round"/><path d="m530.746 489.801-25.263-14.593-25.262-14.593-25.263-14.576V504.394l25.263 14.592 25.262 14.577V591.934l25.263 14.577 25.262 14.593v-116.71l-25.262-14.593Z" stroke="#A8F3E1" stroke-width="3.18" stroke-miterlimit="10" stroke-linejoin="round"/><path d="m606.53 475.208-25.263 14.593-25.262 14.593V621.104l25.262-14.593 25.263-14.577 25.247-14.592V460.615l-25.247 14.593ZM657.667 51.277 632.42 36.701l-25.246 14.576-25.23 14.577-25.247 14.577 25.247 14.576 25.23 14.577 25.246-14.577 25.247-14.576 25.246-14.577-25.246-14.577Z" stroke="#A8F3E1" stroke-width="3.18" stroke-miterlimit="10" stroke-linejoin="round"/><path d="m581.944 95.01-25.247-14.577v58.307l25.247 14.592 25.23 14.577v-58.323l-25.23-14.576Z" stroke="#A8F3E1" stroke-width="3.18" stroke-miterlimit="10" stroke-linejoin="round"/><path d="m657.663 80.433-25.247 14.576-25.246 14.577v58.323l25.246-14.577 25.247-14.593 25.246-14.576V65.856l-25.246 14.577ZM102.97 216.577 77.723 202l-25.246 14.577-25.23 14.576L2 245.73l25.246 14.577 25.23 14.576 25.247-14.576 25.247-14.577 25.246-14.577-25.246-14.576Z" stroke="#A8F3E1" stroke-width="3.18" stroke-miterlimit="10" stroke-linejoin="round"/><path d="M27.246 260.309 2 245.732v58.307l25.246 14.593 25.23 14.576v-58.322l-25.23-14.577Z" stroke="#A8F3E1" stroke-width="3.18" stroke-miterlimit="10" stroke-linejoin="round"/><path d="m102.966 245.732-25.247 14.577-25.246 14.576v58.323l25.246-14.577 25.247-14.593 25.246-14.576v-58.307l-25.246 14.577Z" stroke="#A8F3E1" stroke-width="3.18" stroke-miterlimit="10" stroke-linejoin="round"/></svg>
